X:1
T:Harlequin -- Hornpipe
R:hornpipe
B:Cole's 1000 Fiddle Tunes
M:C|
L:1/8
K:D
vDFAd fdAF|GBdg bgdB|Adfa gfed|"4"edcB AGFE|
DFAd fdAF|GBdg bgdB|afge fd"4"ec|d2f2d2z2:|
|:vagfe dfaf|bagf efgb|agfe defd|"4"edcB A2z2|
agfe dfaf|bagf efgb|afge fd"4"ec|d2f2d2z2:|
